resources/haticons/SVG/remove_from_queue.svg

<!-- Generated by IcoMoon.io -->
<svg version="1.1" xmlns="http://www.w3.org/2000/svg" width="24" height="24" viewBox="0 0 24 24">
<title>remove_from_queue</title>
<path d="M15.984 9.984v2.016h-7.969v-2.016h7.969zM21 17.016v-12h-18v12h18zM21 3q0.844 0 1.43 0.586t0.586 1.43l-0.047 12q0 0.797-0.586 1.383t-1.383 0.586h-5.016v2.016h-7.969v-2.016h-5.016q-0.844 0-1.43-0.563t-0.586-1.406v-12q0-0.844 0.586-1.43t1.43-0.586h18z"></path>
</svg>

<svg xmlns="http://www.w3.org/2000/svg" width="24" height="24"><path d="M15.984 9.984V12H8.015V9.984h7.969zM21 17.016v-12H3v12h18zM21 3q.844 0 1.43.586t.586 1.43l-.047 12q0 .797-.586 1.383T21 18.985h-5.016v2.016H8.015v-2.016H2.999q-.844 0-1.43-.563t-.586-1.406v-12q0-.844.586-1.43T2.999 3h18z"/></svg>
